X: 1
T:Caroline's Jig
M:9/8
L:1/8
Q:80
C:Bruce Gandy
S:Jig
K:HP
|: {gcd}c2{e}A{g}A{d}c{e}A{g}A{d}c{e}A|
{g}ce{A}e{g}ec{d}A{gfg}f2e|
{gcd}c2{e}A{g}A{d}c{e}A{g}A{d}c{e}A|  !
{g}B{d}G{d}B{gf}g2e{g}dB{d}G:| |:
{g}ce{A}e{ag}a2e{g}fed|
{g}e2{GdG}eaed{gcd}c2B|  !
{g}ce{A}e{g}eaf{g}ec{d}A|
{g}B{d}G{d}B{gf}g2e{g}dB{d}G:| |:
{gcd}c2{e}A{g}ec{d}A{g}fed|  !
{g}ec{d}A{g}fed{gcd}c2B|
{gcd}c2{e}A{g}ec{d}A{g}fed|
{g}B{d}G{d}B{gf}g2e{g}dB{d}G:| |:  !
{g}ce{A}e{g}ece{g}fed|
{a}ge{A}e{g}efga2{GdG}a|
ce{A}e{g}ece{g}fed|  !
{g}B{d}G{d}B{gf}g2e{g}dB{d}G:| |:
{gcd}c2{e}A{g}A{d}c{e}A{gcd}cBA|
{g}c{e}c{G}c{g}d{e}d{G}d{gef}edB|  !
{gcd}c2{e}A{g}A{d}c{e}A{gcd}cBA|
{g}B{d}G{d}B{gf}g2e{g}dB{d}G:| |:
g{a}ega{g}a{g}agag|  !
{a}ge{A}e{g}ege{g}fed|
g{a}ega{g}a{g}aged|
{g}B{d}G{d}B{gf}g2e{g}dB{d}G:|  !
